X:1
T:Title
%%score ( 1 2 ) { 3 | 4 }
L:1/8
Q:1/4=110
M:4/4
K:F
V:1 treble nm="Grand Piano, Unnamed-000"
V:2 treble 
V:3 bass nm="Choir Pad, St. Etheldreda, CM"
V:4 bass 
V:1
 [CF]2 [DF]2 [EG]2 [FA]2 | [DG]2 [CF]2 [CE]2 [CF]2 | [EG]2 [FA]2 [Fc]2 B-[EB] | [FA]2 [EG]6 | %4
w: By~Thomas~Turton,~1860 * * *||||
 [FA]2 [FB]2 [Fd]2 [Ec]2 | E2 z2 z4 | [Fc]2 [Fd]2 [FB]2 [FA]2 | [EG]2 F6- | F2 z2 z4 |] %9
w: |||||
V:2
 x8 | x8 | z4 z2 .D2 | x8 | x8 | CB, [A,F]2 [CB]2 [CA]2 | x8 | x8 | x8 |] %9
V:3
 A,2 A,2 C2 C2 | B,2 A,2 G,2 A,2 | C2 C2 A,2 B,2 | C2 C6 | C2[K:bass] B,2 B,2 G,2 | %5
 G,2 F,2 G,2 F,2 | C2 B,2 B,2 C2- | CB, A,6- | A,2 z2 z4 |] %9
V:4
 F,2 D,2 C,2 F,2 | B,,2 C,2 C,2 F,2 | C,2 F,2 z2 G,2 | F,2 C,6 | F,2 D,2 B,,2 C,2 | %5
 C,2 D,2 E,2 z2 | A,,2 B,,2 F,2 C,2- | C,2 F,6- | F,2 z2 z4 |] %9

